src/assets/images/icons/social/instagram.svg

<svg fill="none" viewBox="0 0 20 20" xmlns="http://www.w3.org/2000/svg"><path d="m13 9.70801c0 .59339-.1759 1.17339-.5056 1.66669-.3296.4934-.7982.8779-1.3463 1.1049-.5482.2271-1.15143.2865-1.73337.1708-.58194-.1158-1.11649-.4015-1.53605-.8211-.41956-.4195-.70528-.9541-.82104-1.536-.11575-.58196-.05634-1.18516.17072-1.73334s.61158-1.01672 1.10493-1.34636c.49335-.32965 1.07337-.50559 1.66671-.50559.7954.00091 1.5579.31727 2.1203.87968s.8788 1.32495.8797 2.12032zm6.375-4.125v8.24999c-.0016 1.3919-.5552 2.7264-1.5394 3.7106-.9843.9842-2.3187 1.5378-3.7106 1.5394h-8.25c-1.3919-.0016-2.72635-.5552-3.71057-1.5394s-1.537854-2.3187-1.53943-3.7106v-8.24999c.001576-1.3919.55521-2.72635 1.53943-3.71057.98422-.984226 2.31867-1.537856 3.71057-1.539432h8.25c1.3919.001576 2.7263.555206 3.7106 1.539432.9842.98422 1.5378 2.31867 1.5394 3.71057zm-4.875 4.125c0-.89002-.2639-1.76005-.7584-2.50007s-1.1973-1.3168-2.0195-1.65739c-.8223-.34059-1.72709-.42971-2.60001-.25608-.87291.17364-1.67473.60222-2.30407 1.23156-.62934.62933-1.05792 1.43116-1.23155 2.30407-.17364.87292-.08452 1.7777.25607 2.6.3406.8223.91737 1.5251 1.65739 2.0195.74002.4945 1.61005.7584 2.50007.7584 1.1931-.0013 2.3369-.4759 3.1805-1.3195s1.3182-1.9874 1.3195-3.18049zm1.5-4.875c0-.22251-.066-.44001-.1896-.62502-.1236-.185-.2993-.3292-.5049-.41435-.2055-.08515-.4317-.10742-.65-.06402-.2182.04341-.4187.15056-.576.30789-.1573.15734-.2645.35779-.3079.57602s-.0211.44443.064.65c.0852.20556.2294.38126.4144.50488s.4025.1896.625.1896c.2984 0 .5845-.11853.7955-.32951s.3295-.49712.3295-.79549z" fill="#f9f9fb"/></svg>

<svg viewBox="0 0 20 20" fill="none" xmlns="http://www.w3.org/2000/svg">
<g id="instagram 1">
<path d="M13 9.70801C13 10.3014 12.8241 10.8814 12.4944 11.3747C12.1648 11.8681 11.6962 12.2526 11.1481 12.4796C10.5999 12.7067 9.99667 12.7661 9.41473 12.6504C8.83279 12.5346 8.29824 12.2489 7.87868 11.8293C7.45912 11.4098 7.1734 10.8752 7.05764 10.2933C6.94189 9.71134 7.0013 9.10814 7.22836 8.55996C7.45542 8.01178 7.83994 7.54324 8.33329 7.2136C8.82664 6.88395 9.40666 6.70801 10 6.70801C10.7954 6.70892 11.5579 7.02528 12.1203 7.58769C12.6827 8.1501 12.9991 8.91264 13 9.70801ZM19.375 5.58301V13.833C19.3734 15.2249 18.8198 16.5594 17.8356 17.5436C16.8513 18.5278 15.5169 19.0814 14.125 19.083H5.875C4.4831 19.0814 3.14865 18.5278 2.16443 17.5436C1.18021 16.5594 0.626576 15.2249 0.625 13.833V5.58301C0.626576 4.19111 1.18021 2.85666 2.16443 1.87244C3.14865 0.888214 4.4831 0.334584 5.875 0.333008H14.125C15.5169 0.334584 16.8513 0.888214 17.8356 1.87244C18.8198 2.85666 19.3734 4.19111 19.375 5.58301ZM14.5 9.70801C14.5 8.81799 14.2361 7.94796 13.7416 7.20794C13.2471 6.46792 12.5443 5.89114 11.7221 5.55055C10.8998 5.20996 9.99501 5.12084 9.12209 5.29447C8.24918 5.46811 7.44736 5.89669 6.81802 6.52603C6.18868 7.15536 5.7601 7.95719 5.58647 8.8301C5.41283 9.70302 5.50195 10.6078 5.84254 11.4301C6.18314 12.2524 6.75991 12.9552 7.49993 13.4496C8.23995 13.9441 9.10998 14.208 10 14.208C11.1931 14.2067 12.3369 13.7321 13.1805 12.8885C14.0241 12.0449 14.4987 10.9011 14.5 9.70801ZM16 4.83301C16 4.6105 15.934 4.393 15.8104 4.20799C15.6868 4.02299 15.5111 3.87879 15.3055 3.79364C15.1 3.70849 14.8738 3.68622 14.6555 3.72962C14.4373 3.77303 14.2368 3.88018 14.0795 4.03751C13.9222 4.19485 13.815 4.3953 13.7716 4.61353C13.7282 4.83176 13.7505 5.05796 13.8356 5.26353C13.9208 5.46909 14.065 5.64479 14.25 5.76841C14.435 5.89203 14.6525 5.95801 14.875 5.95801C15.1734 5.95801 15.4595 5.83948 15.6705 5.6285C15.8815 5.41752 16 5.13138 16 4.83301Z" fill="#F9F9FB"/>
</g>
</svg>
